meat/img/edit.svg

<svg width="18" height="18" viewBox="0 0 18 18" fill="none" xmlns="http://www.w3.org/2000/svg">
<g clip-path="url(#clip0)">
<path d="M14.7855 9.00007C14.4305 9.00007 14.1426 9.28789 14.1426 9.64293V16.0714C14.1426 16.4264 13.8548 16.7143 13.4998 16.7143H1.92855C1.5735 16.7143 1.28568 16.4264 1.28568 16.0714V3.21443C1.28568 2.85939 1.5735 2.57157 1.92855 2.57157H9.64273C9.99778 2.57157 10.2856 2.28376 10.2856 1.92871C10.2856 1.57366 9.99778 1.28589 9.64273 1.28589H1.92855C0.863439 1.28589 0 2.14933 0 3.21443V16.0714C0 17.1365 0.863439 17.9999 1.92855 17.9999H13.4998C14.5649 17.9999 15.4284 17.1365 15.4284 16.0714V9.6429C15.4284 9.28789 15.1406 9.00007 14.7855 9.00007Z" fill="white"/>
<path d="M17.2794 0.72088C16.8178 0.259234 16.1918 -6.51633e-05 15.539 1.01705e-05C14.8858 -0.00187318 14.2591 0.257878 13.7988 0.721294L5.33115 9.18821C5.26091 9.25899 5.20791 9.34502 5.17623 9.43957L3.89054 13.2967C3.77834 13.6335 3.96045 13.9975 4.29731 14.1097C4.36266 14.1315 4.4311 14.1426 4.49996 14.1427C4.56896 14.1425 4.63756 14.1315 4.7031 14.1099L8.56019 12.8242C8.65492 12.7926 8.74099 12.7393 8.81154 12.6686L17.2791 4.20104C18.2402 3.24008 18.2403 1.68195 17.2794 0.72088Z" fill="white"/>
</g>
<defs>
<clipPath id="clip0">
<rect width="18" height="18" fill="white"/>
</clipPath>
</defs>
</svg>

<svg width="18" height="18" fill="none" xmlns="http://www.w3.org/2000/svg"><g clip-path="url(#clip0)" fill="#fff"><path d="M14.786 9a.643.643 0 0 0-.643.643v6.428a.643.643 0 0 1-.643.643H1.929a.643.643 0 0 1-.643-.643V3.214c0-.355.287-.642.643-.642h7.714a.643.643 0 1 0 0-1.286H1.929A1.929 1.929 0 0 0 0 3.214v12.857C0 17.137.863 18 1.929 18h11.57a1.929 1.929 0 0 0 1.93-1.929V9.643A.643.643 0 0 0 14.785 9z"/><path d="M17.28.72a2.46 2.46 0 0 0-3.481.001L5.33 9.188a.65.65 0 0 0-.155.252l-1.285 3.857a.643.643 0 0 0 .812.813l3.857-1.286a.642.642 0 0 0 .252-.155L17.279 4.2a2.46 2.46 0 0 0 0-3.48z"/></g><defs><clipPath id="clip0"><path fill="#fff" d="M0 0h18v18H0z"/></clipPath></defs></svg>
